html/assets/images/dynamic/life-sciences-icon-4.svg

<svg width="68" height="85" viewBox="0 0 68 85" fill="none" xmlns="http://www.w3.org/2000/svg">
<path d="M24.6858 1.19604L25.898 5.70604" stroke="#00999A" stroke-width="4" stroke-miterlimit="10"/>
<path d="M9.28394 10.3052L12.5818 13.603" stroke="#00999A" stroke-width="4" stroke-miterlimit="10"/>
<path d="M0.513672 25.9031L5.02367 27.1153" stroke="#00999A" stroke-width="4" stroke-miterlimit="10"/>
<path d="M0.709961 43.8004L5.21996 42.5883" stroke="#00999A" stroke-width="4" stroke-miterlimit="10"/>
<path d="M9.83667 59.2024L13.1345 55.9045" stroke="#00999A" stroke-width="4" stroke-miterlimit="10"/>
<path d="M58.716 58.6495L55.4182 55.3695" stroke="#00999A" stroke-width="4" stroke-miterlimit="10"/>
<path d="M67.4863 43.0696L62.9763 41.8574" stroke="#00999A" stroke-width="4" stroke-miterlimit="10"/>
<path d="M67.2901 25.1721L62.78 26.3843" stroke="#00999A" stroke-width="4" stroke-miterlimit="10"/>
<path d="M58.1811 9.77051L54.8833 13.0683" stroke="#00999A" stroke-width="4" stroke-miterlimit="10"/>
<path d="M42.583 1L41.3708 5.51" stroke="#00999A" stroke-width="4" stroke-miterlimit="10"/>
<path d="M30.8005 47.1516C25.4705 45.9216 22.3331 40.0925 22.8501 36.759C24.2227 27.8103 32.8862 25.992 36.0057 19.236C42.0309 22.4981 46.4696 29.8425 44.6514 37.3294C43.4214 42.3742 37.2357 44.9768 34.7044 45.7968" stroke="#00999A" stroke-width="4" stroke-miterlimit="10"/>
<path d="M32.8146 54.4782C27.8946 44.2995 32.8859 35.5825 35.4707 28.2916" stroke="#00999A" stroke-width="4" stroke-miterlimit="10"/>
<path d="M42.4049 79.4348H38.8397L35.2745 83H31.7093L28.1441 79.4348H24.5789" stroke="#00999A" stroke-width="4" stroke-miterlimit="10"/>
<path d="M21.0137 66.9565H45.9702" stroke="#00999A" stroke-width="4" stroke-miterlimit="10"/>
<path d="M21.0137 74.0869H45.9702" stroke="#00999A" stroke-width="4" stroke-miterlimit="10"/>
<path d="M44.1875 63.3913V59.8261C44.1875 56.047 45.7919 52.2857 48.4658 49.6118C52.4945 45.5652 54.8832 39.2548 54.8832 33.087C54.8832 21.2683 45.3106 11.6957 33.4919 11.6957C21.6732 11.6957 12.1006 21.2683 12.1006 33.087C12.1006 39.2548 14.4893 45.5652 18.518 49.6118C21.1919 52.2857 22.7962 56.047 22.7962 59.8261V63.3913" stroke="#00999A" stroke-width="4" stroke-miterlimit="10"/>
</svg>

<svg width="68" height="85" fill="none" xmlns="http://www.w3.org/2000/svg"><path d="M24.686 1.196l1.212 4.51M9.284 10.305l3.298 3.298M.514 25.903l4.51 1.212M.71 43.8l4.51-1.212m4.617 16.614l3.297-3.297m45.582 2.745l-3.298-3.28m12.068-12.3l-4.51-1.213m4.314-16.685l-4.51 1.212M58.181 9.77l-3.298 3.298M42.583 1l-1.212 4.51M30.8 47.152c-5.33-1.23-8.467-7.06-7.95-10.393 1.373-8.949 10.036-10.767 13.156-17.523 6.025 3.262 10.464 10.607 8.645 18.093-1.23 5.045-7.415 7.648-9.947 8.468m-1.889 8.681c-4.92-10.178.07-18.895 2.656-26.186m6.934 51.143H38.84L35.274 83H31.71l-3.565-3.565H24.58m-3.566-12.478H45.97m-24.956 7.13H45.97" stroke="#00999A" stroke-width="4" stroke-miterlimit="10"/><path d="M44.188 63.391v-3.565c0-3.779 1.604-7.54 4.278-10.214 4.029-4.047 6.417-10.357 6.417-16.525 0-11.819-9.572-21.391-21.391-21.391-11.819 0-21.391 9.572-21.391 21.391 0 6.168 2.388 12.478 6.417 16.525 2.674 2.674 4.278 6.435 4.278 10.214v3.565" stroke="#00999A" stroke-width="4" stroke-miterlimit="10"/></svg>
